X:1
T:Title
%%score { ( 1 4 ) | ( 2 3 ) }
L:1/8
M:6/4
K:G
V:1 treble nm="Grand Piano"
V:4 treble 
V:2 bass 
V:3 bass 
V:1
 z6 z4[Q:1/4=114] DD | G2 G2 A2 B2 B2 G2 | [EA]2 [EG]2 [CE]2 [B,D]4 [DF][DG] | %3
 [FA]2 [FA]2 [GB]2 [Fc]2 [Fc]2 F2 | G2 G2 A2 B4 Bc | d2 d2 d2 B2 A2 G2 | %6
 [EA]2 [EG]2 [CE]2 [EG]4 [CE]2 | [B,D]2 [Gd]2 [Fd]2 [Gd]2 [B,DB]2 [B,EG]2 | .[CFA]6 .[B,DG]6 | %9
 d2 d2 d2 e2 d2 B2 | d4- [B,Gd]2 .[Fd]6 | G2 G2 G2 [EA]2 [EG]2 [G,CE]2 | [G,G]4- [G,EG]2 .[B,DG]6 | %13
 B2 B2 B2 d4 d2 |[M:13/8] A2 A2 B2 c- c3 [Ge]3 |[M:6/4] [Gd]2 [Fd]2 [Fd]2 [Gd]2 [B,DB]2 [B,G]2 | %16
[M:5/4] [CA]6 z4 |] %17
V:2
 z6 z4 [G,B,][G,B,] | [G,B,D]2 [G,B,D]2 [G,CD]2[K:treble] [G,DG]2 [G,DG]2[K:bass] [G,B,D]2 | %2
 [C,C]2 [C,C]2 [C,G,]2 [G,,G,]4 [D,A,][D,B,] | [D,C]2 [D,C]2 [D,B,]2 [D,A,]2 [D,A,]2 [D,CD]2 | %4
 [G,B,D]2 [G,B,D]2 [G,CD]2 [G,DG]4 [G,G][G,A,G] | %5
 [G,B,G]2 [G,B,G]2 [G,B,G]2 [G,DG]2[K:bass] [G,CD]2 [G,B,D]2 | %6
 [C,C]2 [C,C]2 [C,G,]2 [C,C]4 [C,G,]2 | [D,G,]2 [D,B,]2 [D,A,]2 [G,B,]2 G,2 E,2 | z2 E2 D2 .G,,6 | %9
 [G,B,G]2 [G,B,G]2 [G,B,G]2 [G,CG]2 [G,B,G]2[K:bass] [G,D]2 | .[D,A,]6 .[D,C]6 | %11
 [E,B,E]2 [E,B,E]2 [E,B,E]2 [C,C]2 [C,C]2 C,2 | z4 C2 .G,,6 | %13
 [G,DG]2 [G,DG]2 [G,DG]2 [G,B,G]4 [G,B,G]2 | %14
[M:13/8] [CE]2 [CE]2 [B,D^G]2 [A,EA]- [A,EA]3[K:bass] [C,C]3 | %15
[M:6/4] [D,B,]2 [D,A,]2 [D,C]2 [G,B,]2 G,2 E,2 |[M:5/4] z2 E2 D2 G,,4 |] %17
V:3
 x12 | x6[K:treble] x4[K:bass] x2 | x12 | x12 | x12 | x8[K:bass] x4 | x12 | x12 | D,6 z6 | %9
 x10[K:bass] x2 | x12 | x12 | G,,6 z6 | x12 |[M:13/8] x10[K:bass] x3 |[M:6/4] x12 | %16
[M:5/4] D,6 z4 |] %17
V:4
 x12 | x12 | x12 | x12 | x12 | x12 | x12 | x12 | x12 | x12 | .F6 z6 | x12 | .[B,D]6 z6 | x12 | %14
[M:13/8] x13 |[M:6/4] x12 |[M:5/4] F2 z2 F2 [B,DG]4 |] %17

